X:238
T:Boda Waltz for Bb Instruments
M:3/4
L:1/8
K:F#m
c3 dcB | c3 dcB | c4 f2 | c3 efg | a4 a2 | g4 f2 | g3 ag2 | c6 |
f4 f2 | e4 d2 | c3 dcB | A3 GAB | c3 dcB | A4 G2 | F6 | F6 :|
|: f4 fg | a2 g2f2 | e3 fed | c4c2 | B2c2 d2 | d2c2B2 | c4 d2 | e6  |
f4 fg | a2 g2 f2 | e3 fed | c4 c2 | B2 c2 d2 | E2 F2 G2 | A3 GAB | A6 :
|
